src/lib/packages/icons/src/assets/filled/question-square.svg

<svg width="24" height="24" viewBox="0 0 24 24" fill="none" xmlns="http://www.w3.org/2000/svg">
<path d="M17.625 3H6.375C4.125 3 3 4.125 3 6.375V17.625C3 19.875 4.125 21 6.375 21H17.625C19.875 21 21 19.875 21 17.625V6.375C21 4.125 19.875 3 17.625 3ZM12.02 17.5C11.468 17.5 11.0149 17.052 11.0149 16.5C11.0149 15.948 11.458 15.5 12.01 15.5H12.02C12.573 15.5 13.02 15.948 13.02 16.5C13.02 17.052 12.572 17.5 12.02 17.5ZM13.603 12.5281C12.872 13.0181 12.7359 13.291 12.7109 13.363C12.6059 13.676 12.314 13.874 12 13.874C11.921 13.874 11.841 13.862 11.762 13.835C11.369 13.703 11.1581 13.278 11.2891 12.885C11.4701 12.345 11.9391 11.836 12.7671 11.281C13.7881 10.597 13.657 9.84707 13.614 9.60107C13.501 8.94707 12.95 8.38988 12.303 8.27588C11.81 8.18588 11.3301 8.31488 10.9541 8.62988C10.5761 8.94688 10.3589 9.41391 10.3589 9.90991C10.3589 10.3239 10.0229 10.6599 9.60889 10.6599C9.19489 10.6599 8.85889 10.3239 8.85889 9.90991C8.85889 8.96891 9.27099 8.08396 9.98999 7.48096C10.702 6.88496 11.639 6.63605 12.564 6.80005C13.831 7.02405 14.8701 8.07097 15.0911 9.34497C15.3111 10.607 14.782 11.7381 13.603 12.5281Z" fill="currentColor"/>
</svg>

<svg xmlns="http://www.w3.org/2000/svg" width="24" height="24" fill="none"><path fill="currentColor" d="M17.625 3H6.375C4.125 3 3 4.125 3 6.375v11.25C3 19.875 4.125 21 6.375 21h11.25C19.875 21 21 19.875 21 17.625V6.375C21 4.125 19.875 3 17.625 3ZM12.02 17.5a1.005 1.005 0 0 1-1.005-1c0-.552.443-1 .995-1h.01a1 1 0 1 1 0 2Zm1.583-4.972c-.731.49-.867.763-.892.835a.75.75 0 1 1-1.422-.478c.181-.54.65-1.049 1.478-1.604 1.021-.684.89-1.434.847-1.68-.113-.654-.664-1.211-1.311-1.325a1.617 1.617 0 0 0-1.349.354 1.667 1.667 0 0 0-.595 1.28.75.75 0 0 1-1.5 0c0-.941.412-1.826 1.131-2.429a3.142 3.142 0 0 1 2.574-.681c1.267.224 2.306 1.271 2.527 2.545.22 1.262-.309 2.393-1.488 3.183Z"/></svg>
